web/youtrack/apple-mask-icon.svg

<svg enable-background="new 0 0 16 16" height="16" viewBox="0 0 16 16" width="16" xmlns="http://www.w3.org/2000/svg"><path d="m1 1v14h14v-14zm8 12h-6v-1h6zm4-8.8h-1.8v4.8h-1.4v-4.8h-1.8v-1.2l-2.3 3.6v2.4h-1.4v-2.4l-2.3-3.6h1.6l1.4 2.4 1.5-2.4h1.5 5z"/></svg>

<?xml version="1.0" encoding="utf-8"?>
<!-- Generator: Adobe Illustrator 19.1.0, SVG Export Plug-In . SVG Version: 6.00 Build 0)  -->
<svg version="1.1" id="Layer_1" xmlns="http://www.w3.org/2000/svg" xmlns:xlink="http://www.w3.org/1999/xlink" x="0px" y="0px"
	 width="16" height="16" viewBox="0 0 16 16" style="enable-background:new 0 0 16 16;" xml:space="preserve">
<path d="M1,1v14h14V1H1z M9,13H3v-1h6V13z M13,4.2h-1.8V9H9.8V4.2h0H8V3L5.7,6.6V9H4.3V6.6h0L2,3h1.6L5,5.4L6.5,3H8h5V4.2z"/>
</svg>
